Numix-Circle/48x48/apps/salut.svg

<svg width="48" xmlns="http://www.w3.org/2000/svg" height="48" viewBox="0 0 48 48" xmlns:xlink="http://www.w3.org/1999/xlink">
<defs>
<clipPath id="clip2">
<rect width="48" height="48"/>
</clipPath>
<clipPath id="clip1">
<rect width="48" height="48"/>
</clipPath>
<clipPath id="clip5">
<rect width="48" height="48"/>
</clipPath>
<clipPath id="clip4">
<rect width="48" height="48"/>
</clipPath>
<clipPath id="clip3">
<rect width="48" height="48"/>
</clipPath>
<filter width="100%" x="0" y="0" height="100%" filterUnits="objectBoundingBox" id="alpha">
<feColorMatrix values="0 0 0 0 1 0 0 0 0 1 0 0 0 0 1 0 0 0 1 0" in="SourceGraphic" type="matrix"/>
</filter>
<g style="clip-path:url(#clip4)" id="surface44">
<use xlink:href="#image37"/>
</g>
<g style="clip-path:url(#clip2)" id="surface26">
<use xlink:href="#image19"/>
</g>
<g style="clip-path:url(#clip3)" id="surface35">
<use xlink:href="#image28"/>
</g>
<g style="clip-path:url(#clip5)" id="surface53">
<use xlink:href="#image46"/>
</g>
<g style="clip-path:url(#clip1)" id="surface17">
<use xlink:href="#image10"/>
</g>
<image width="48" height="48" id="image42" xlink:href="data:image/png;base64,iVBORw0KGgoAAAANSUhEUgAAADAAAAAwCAYAAABXAvmHAAAABmJLR0QA/wD/AP+gvaeTAAAAVElEQVRoge3PQQ0AIRDAwGNF4P+BUETcY0LSUdCuPXO+h40O+KsBrQGtAa0BrQGtAa0BrQGtAa0BrQGtAa0BrQGtAa0BrQGtAa0BrQGtAa0BrQHtAsgPAR5Ik1qvAAAAAElFTkSuQmCC"/>
<image width="48" height="48" id="image15" xlink:href="data:image/png;base64,iVBORw0KGgoAAAANSUhEUgAAADAAAAAwCAYAAABXAvmHAAAABmJLR0QA/wD/AP+gvaeTAAAAVElEQVRoge3PQQ0AIRDAwGNF4P+BUETcY0LSUdCuPXO+h40O+KsBrQGtAa0BrQGtAa0BrQGtAa0BrQGtAa0BrQGtAa0BrQGtAa0BrQGtAa0BrQHtAsgPAR5Ik1qvAAAAAElFTkSuQmCC"/>
<image width="48" height="48" id="image51" xlink:href="data:image/png;base64,iVBORw0KGgoAAAANSUhEUgAAADAAAAAwCAYAAABXAvmHAAAABmJLR0QA/wD/AP+gvaeTAAAAVElEQVRoge3PQQ0AIRDAwGNF4P+BUETcY0LSUdCuPXO+h40O+KsBrQGtAa0BrQGtAa0BrQGtAa0BrQGtAa0BrQGtAa0BrQGtAa0BrQGtAa0BrQHtAsgPAR5Ik1qvAAAAAElFTkSuQmCC"/>
<image width="48" height="48" id="image46" xlink:href="data:image/png;base64,iVBORw0KGgoAAAANSUhEUgAAADAAAAAwCAYAAABXAvmHAAAABmJLR0QA/wD/AP+gvaeTAAAAjklEQVRoge3PPQ4BURRA4fOGabAPFqAnKpFobUFvBdNq9IrZACWVbhrb0fipDI0FeAl5EeerbnNvzgVJkiRJkiRJkiRJPyWkDhgvy26WhV670TlsF7Nb7H7zG1HvmqzKPnU4Avnlfq6AYeyN7ONVER51GAE5AIHBtFi3Ym8kfQDYA6fXvNkV82vKGEn6Q09FmRU2fJ/VgQAAAABJRU5ErkJggg=="/>
<image width="48" height="48" id="image10" xlink:href="data:image/png;base64,iVBORw0KGgoAAAANSUhEUgAAADAAAAAwCAYAAABXAvmHAAAABmJLR0QA/wD/AP+gvaeTAAAAm0lEQVRoge3PvwnCQBiG8fdyYBXQAexTW1ikcwQbN8gEwQHcwBHsHUBI5QgBawsNLiCcQiB/bBzgTrjK59d98BXPKwEAAAAA8BMT8rzeH2Ztr5VRX5+2xT1WVAjvAZvdcfJK3UVSZiTXJcOiKotrxDYvie/je+rmkjJJGqXUDjaPVhXAe8Dy2dwknb/noxttFaUIAAAAAAAA+Acf5XodzcPl5SIAAAAASUVORK5CYII="/>
<image width="48" height="48" id="image19" xlink:href="data:image/png;base64,iVBORw0KGgoAAAANSUhEUgAAADAAAAAwCAYAAABXAvmHAAAABmJLR0QA/wD/AP+gvaeTAAAAhUlEQVRoge3RsQkCQRBA0b+LJheYXSSWYRH2IXYgGhmamFmDLdiJzbjBjpmRyF1wLOJ/2cAMfBiQJEmSpB+VWgdsrrcFpVxI9LnW032/fYy5n00VNlQuz0OQdgQEeQWsR91P1DVYTbl7D4nuy+pHzT/APM4UlgF9Co6tcyRJkiRJkiT9hRfOjRVxVyYo1AAAAABJRU5ErkJggg=="/>
<image width="48" height="48" id="image33" xlink:href="data:image/png;base64,iVBORw0KGgoAAAANSUhEUgAAADAAAAAwCAYAAABXAvmHAAAABmJLR0QA/wD/AP+gvaeTAAAAVElEQVRoge3PQQ0AIRDAwGNF4P+BUETcY0LSUdCuPXO+h40O+KsBrQGtAa0BrQGtAa0BrQGtAa0BrQGtAa0BrQGtAa0BrQGtAa0BrQGtAa0BrQHtAsgPAR5Ik1qvAAAAAElFTkSuQmCC"/>
<image width="48" height="48" id="image28" xlink:href="data:image/png;base64,iVBORw0KGgoAAAANSUhEUgAAADAAAAAwCAYAAABXAvmHAAAABmJLR0QA/wD/AP+gvaeTAAAAcUlEQVRoge3PvQ3CQBBE4Xd2Yk5X0+kKME1QAwW4Ccc0gSxRCW04c8RPcjESwWbvyzaZmQVJ+qWta4nMT1HBbblNufCATwXu2/VyjugZIkIBTvld+3iAOaon7IHXmJ7A0c89qkeSJEmSJEmSJEmS9JcvuaYOE581H7cAAAAASUVORK5CYII="/>
<image width="48" height="48" id="image37" xlink:href="data:image/png;base64,iVBORw0KGgoAAAANSUhEUgAAADAAAAAwCAYAAABXAvmHAAAABmJLR0QA/wD/AP+gvaeTAAAAf0lEQVRoge3PsQnCUBhF4fMMNpIZIriNiKXpHMTu2QesbTJA3EQQnMApbGMsLc0PBpvzlbc6FyRJkiRJkiRJkiR9tc3nRc559u8OgHDEummPfTl/XsvqsTm1qymiIkIHdl1XJDgACVgOr7SfJmu80IFLXffA/bMMtx/3SJIU8gZS+hPsTFlE4gAAAABJRU5ErkJggg=="/>
<image width="48" height="48" id="image24" xlink:href="data:image/png;base64,iVBORw0KGgoAAAANSUhEUgAAADAAAAAwCAYAAABXAvmHAAAABmJLR0QA/wD/AP+gvaeTAAAAVElEQVRoge3PQQ0AIRDAwGNF4P+BUETcY0LSUdCuPXO+h40O+KsBrQGtAa0BrQGtAa0BrQGtAa0BrQGtAa0BrQGtAa0BrQGtAa0BrQGtAa0BrQHtAsgPAR5Ik1qvAAAAAElFTkSuQmCC"/>
<mask id="mask4">
<g style="filter:url(#alpha)">
<use xlink:href="#image51"/>
</g>
</mask>
<mask id="mask2">
<g style="filter:url(#alpha)">
<use xlink:href="#image33"/>
</g>
</mask>
<mask id="mask0">
<g style="filter:url(#alpha)">
<use xlink:href="#image15"/>
</g>
</mask>
<mask id="mask1">
<g style="filter:url(#alpha)">
<use xlink:href="#image24"/>
</g>
</mask>
<mask id="mask3">
<g style="filter:url(#alpha)">
<use xlink:href="#image42"/>
</g>
</mask>
</defs>
<path style="fill:#4a8c9d" d="M 22.964844 17.546875 L 25.035156 17.546875 C 28.136719 17.546875 28.074219 20.695312 28.074219 20.695312 L 28.074219 23.398438 C 28.074219 24.425781 26.261719 26.546875 26.261719 26.546875 L 26.261719 27.898438 L 30.335938 30.148438 L 30.335938 31.949219 L 17.664062 31.949219 L 17.664062 30.148438 L 21.738281 27.898438 L 21.738281 26.546875 C 21.738281 26.546875 19.917969 24.425781 19.925781 23.398438 L 19.925781 20.695312 C 19.925781 20.695312 19.863281 17.546875 22.964844 17.546875 Z "/>
<g style="fill:none;stroke:#4a8c9d;stroke-linejoin:round;stroke-linecap:round">
<path style="stroke-width:5.285" d="M 224.880727 113.269343 C 224.880727 142.362099 190.705161 165.94342 148.520774 165.94342 C 106.336388 165.94342 72.160822 142.362099 72.160822 113.269343 C 72.160822 84.188491 106.336388 60.60717 148.520774 60.60717 C 190.705161 60.60717 224.880727 84.188491 224.880727 113.269343 Z " transform="matrix(.22631 0 0 .32815 -9.61218 -12.42358)"/>
<path style="stroke-width:7.687" d="M 224.895131 113.268121 C 224.895131 142.356443 190.700474 165.938762 148.522042 165.938762 C 106.34361 165.938762 72.148953 142.356443 72.148953 113.268121 C 72.148953 84.179799 106.34361 60.597481 148.522042 60.597481 C 190.700474 60.597481 224.895131 84.179799 224.895131 113.268121 Z " transform="matrix(.15559 0 0 .22561 .8916 -.80787)"/>
</g>
<use style="mask:url(#mask0)" xlink:href="#surface17"/>
<use style="mask:url(#mask1)" xlink:href="#surface26"/>
<use style="mask:url(#mask2)" xlink:href="#surface35"/>
<use style="mask:url(#mask3)" xlink:href="#surface44"/>
<use style="mask:url(#mask4)" xlink:href="#surface53"/>
<g style="fill:#4a8c9d">
<path d="M 14.417969 21.433594 C 14.417969 22.425781 13.613281 23.234375 12.617188 23.234375 C 11.625 23.234375 10.816406 22.425781 10.816406 21.433594 C 10.816406 20.4375 11.625 19.632812 12.617188 19.632812 C 13.613281 19.632812 14.417969 20.4375 14.417969 21.433594 Z "/>
<path d="M 35.941406 19.0625 C 35.941406 20.054688 35.136719 20.863281 34.140625 20.863281 C 33.148438 20.863281 32.339844 20.054688 32.339844 19.0625 C 32.339844 18.066406 33.148438 17.261719 34.140625 17.261719 C 35.136719 17.261719 35.941406 18.066406 35.941406 19.0625 Z "/>
<path d="M 26.269531 7.683594 C 26.269531 8.679688 25.464844 9.484375 24.46875 9.484375 C 23.476562 9.484375 22.671875 8.679688 22.671875 7.683594 C 22.671875 6.6875 23.476562 5.882812 24.46875 5.882812 C 25.464844 5.882812 26.269531 6.6875 26.269531 7.683594 Z "/>
<path d="M 15.558594 38.6875 C 15.558594 39.683594 14.75 40.488281 13.757812 40.488281 C 12.761719 40.488281 11.957031 39.683594 11.957031 38.6875 C 11.957031 37.695312 12.761719 36.886719 13.757812 36.886719 C 14.75 36.886719 15.558594 37.695312 15.558594 38.6875 Z "/>
<path d="M 35.089844 39.445312 C 35.089844 40.441406 34.28125 41.246094 33.289062 41.246094 C 32.292969 41.246094 31.488281 40.441406 31.488281 39.445312 C 31.488281 38.453125 32.292969 37.648438 33.289062 37.648438 C 34.28125 37.648438 35.089844 38.453125 35.089844 39.445312 Z "/>
</g>
</svg>

<svg xmlns="http://www.w3.org/2000/svg" xmlns:xlink="http://www.w3.org/1999/xlink" viewBox="0 0 48 48">
 <defs>
  <clipPath id="clip2">
   <rect width="48" height="48"/>
  </clipPath>
  <clipPath id="clip1">
   <rect width="48" height="48"/>
  </clipPath>
  <clipPath id="clip5">
   <rect width="48" height="48"/>
  </clipPath>
  <clipPath id="clip4">
   <rect width="48" height="48"/>
  </clipPath>
  <clipPath id="clip3">
   <rect width="48" height="48"/>
  </clipPath>
  <filter width="48" x="0" y="0" height="48" filterUnits="objectBoundingBox" id="alpha">
   <feColorMatrix values="0 0 0 0 1 0 0 0 0 1 0 0 0 0 1 0 0 0 1 0" in="SourceGraphic" type="matrix"/>
  </filter>
  <g id="surface44" style="clip-path:url(#clip4)">
   <use xlink:href="#image37"/>
  </g>
  <g id="surface26" style="clip-path:url(#clip2)">
   <use xlink:href="#image19"/>
  </g>
  <g id="surface35" style="clip-path:url(#clip3)">
   <use xlink:href="#image28"/>
  </g>
  <g id="surface53" style="clip-path:url(#clip5)">
   <use xlink:href="#image46"/>
  </g>
  <g id="surface17" style="clip-path:url(#clip1)">
   <use xlink:href="#image10"/>
  </g>
  <image width="48" height="48" id="image42" xlink:href="data:image/png;base64,iVBORw0KGgoAAAANSUhEUgAAADAAAAAwCAYAAABXAvmHAAAABmJLR0QA/wD/AP+gvaeTAAAAVElEQVRoge3PQQ0AIRDAwGNF4P+BUETcY0LSUdCuPXO+h40O+KsBrQGtAa0BrQGtAa0BrQGtAa0BrQGtAa0BrQGtAa0BrQGtAa0BrQGtAa0BrQHtAsgPAR5Ik1qvAAAAAElFTkSuQmCC"/>
  <image width="48" height="48" id="image15" xlink:href="data:image/png;base64,iVBORw0KGgoAAAANSUhEUgAAADAAAAAwCAYAAABXAvmHAAAABmJLR0QA/wD/AP+gvaeTAAAAVElEQVRoge3PQQ0AIRDAwGNF4P+BUETcY0LSUdCuPXO+h40O+KsBrQGtAa0BrQGtAa0BrQGtAa0BrQGtAa0BrQGtAa0BrQGtAa0BrQGtAa0BrQHtAsgPAR5Ik1qvAAAAAElFTkSuQmCC"/>
  <image width="48" height="48" id="image51" xlink:href="data:image/png;base64,iVBORw0KGgoAAAANSUhEUgAAADAAAAAwCAYAAABXAvmHAAAABmJLR0QA/wD/AP+gvaeTAAAAVElEQVRoge3PQQ0AIRDAwGNF4P+BUETcY0LSUdCuPXO+h40O+KsBrQGtAa0BrQGtAa0BrQGtAa0BrQGtAa0BrQGtAa0BrQGtAa0BrQGtAa0BrQHtAsgPAR5Ik1qvAAAAAElFTkSuQmCC"/>
  <image width="48" height="48" id="image46" xlink:href="data:image/png;base64,iVBORw0KGgoAAAANSUhEUgAAADAAAAAwCAYAAABXAvmHAAAABmJLR0QA/wD/AP+gvaeTAAAAjklEQVRoge3PPQ4BURRA4fOGabAPFqAnKpFobUFvBdNq9IrZACWVbhrb0fipDI0FeAl5EeerbnNvzgVJkiRJkiRJkiRJPyWkDhgvy26WhV670TlsF7Nb7H7zG1HvmqzKPnU4Avnlfq6AYeyN7ONVER51GAE5AIHBtFi3Ym8kfQDYA6fXvNkV82vKGEn6Q09FmRU2fJ/VgQAAAABJRU5ErkJggg=="/>
  <image width="48" height="48" id="image10" xlink:href="data:image/png;base64,iVBORw0KGgoAAAANSUhEUgAAADAAAAAwCAYAAABXAvmHAAAABmJLR0QA/wD/AP+gvaeTAAAAm0lEQVRoge3PvwnCQBiG8fdyYBXQAexTW1ikcwQbN8gEwQHcwBHsHUBI5QgBawsNLiCcQiB/bBzgTrjK59d98BXPKwEAAAAA8BMT8rzeH2Ztr5VRX5+2xT1WVAjvAZvdcfJK3UVSZiTXJcOiKotrxDYvie/je+rmkjJJGqXUDjaPVhXAe8Dy2dwknb/noxttFaUIAAAAAAAA+Acf5XodzcPl5SIAAAAASUVORK5CYII="/>
  <image width="48" height="48" id="image19" xlink:href="data:image/png;base64,iVBORw0KGgoAAAANSUhEUgAAADAAAAAwCAYAAABXAvmHAAAABmJLR0QA/wD/AP+gvaeTAAAAhUlEQVRoge3RsQkCQRBA0b+LJheYXSSWYRH2IXYgGhmamFmDLdiJzbjBjpmRyF1wLOJ/2cAMfBiQJEmSpB+VWgdsrrcFpVxI9LnW032/fYy5n00VNlQuz0OQdgQEeQWsR91P1DVYTbl7D4nuy+pHzT/APM4UlgF9Co6tcyRJkiRJkiT9hRfOjRVxVyYo1AAAAABJRU5ErkJggg=="/>
  <image width="48" height="48" id="image33" xlink:href="data:image/png;base64,iVBORw0KGgoAAAANSUhEUgAAADAAAAAwCAYAAABXAvmHAAAABmJLR0QA/wD/AP+gvaeTAAAAVElEQVRoge3PQQ0AIRDAwGNF4P+BUETcY0LSUdCuPXO+h40O+KsBrQGtAa0BrQGtAa0BrQGtAa0BrQGtAa0BrQGtAa0BrQGtAa0BrQGtAa0BrQHtAsgPAR5Ik1qvAAAAAElFTkSuQmCC"/>
  <image width="48" height="48" id="image28" xlink:href="data:image/png;base64,iVBORw0KGgoAAAANSUhEUgAAADAAAAAwCAYAAABXAvmHAAAABmJLR0QA/wD/AP+gvaeTAAAAcUlEQVRoge3PvQ3CQBBE4Xd2Yk5X0+kKME1QAwW4Ccc0gSxRCW04c8RPcjESwWbvyzaZmQVJ+qWta4nMT1HBbblNufCATwXu2/VyjugZIkIBTvld+3iAOaon7IHXmJ7A0c89qkeSJEmSJEmSJEmS9JcvuaYOE581H7cAAAAASUVORK5CYII="/>
  <image width="48" height="48" id="image37" xlink:href="data:image/png;base64,iVBORw0KGgoAAAANSUhEUgAAADAAAAAwCAYAAABXAvmHAAAABmJLR0QA/wD/AP+gvaeTAAAAf0lEQVRoge3PsQnCUBhF4fMMNpIZIriNiKXpHMTu2QesbTJA3EQQnMApbGMsLc0PBpvzlbc6FyRJkiRJkiRJkiR9tc3nRc559u8OgHDEummPfTl/XsvqsTm1qymiIkIHdl1XJDgACVgOr7SfJmu80IFLXffA/bMMtx/3SJIU8gZS+hPsTFlE4gAAAABJRU5ErkJggg=="/>
  <image width="48" height="48" id="image24" xlink:href="data:image/png;base64,iVBORw0KGgoAAAANSUhEUgAAADAAAAAwCAYAAABXAvmHAAAABmJLR0QA/wD/AP+gvaeTAAAAVElEQVRoge3PQQ0AIRDAwGNF4P+BUETcY0LSUdCuPXO+h40O+KsBrQGtAa0BrQGtAa0BrQGtAa0BrQGtAa0BrQGtAa0BrQGtAa0BrQGtAa0BrQHtAsgPAR5Ik1qvAAAAAElFTkSuQmCC"/>
  <mask id="mask4">
   <g style="filter:url(#alpha)">
    <use xlink:href="#image51"/>
   </g>
  </mask>
  <mask id="mask2">
   <g style="filter:url(#alpha)">
    <use xlink:href="#image33"/>
   </g>
  </mask>
  <mask id="mask0">
   <g style="filter:url(#alpha)">
    <use xlink:href="#image15"/>
   </g>
  </mask>
  <mask id="mask1">
   <g style="filter:url(#alpha)">
    <use xlink:href="#image24"/>
   </g>
  </mask>
  <mask id="mask3">
   <g style="filter:url(#alpha)">
    <use xlink:href="#image42"/>
   </g>
  </mask>
 </defs>
 <path d="m 22.965 17.547 l 2.07 0 c 3.102 0 3.039 3.148 3.039 3.148 l 0 2.703 c 0 1.027 -1.813 3.148 -1.813 3.148 l 0 1.352 l 4.074 2.25 l 0 1.801 l -12.672 0 l 0 -1.801 l 4.074 -2.25 l 0 -1.352 c 0 0 -1.82 -2.121 -1.813 -3.148 l 0 -2.703 c 0 0 -0.063 -3.148 3.039 -3.148 Z" style="fill:#4a8c9d"/>
 <g style="fill:none;stroke:#4a8c9d;stroke-linecap:round;stroke-linejoin:round">
  <path d="m 224.88 113.27 c 0 29.09 -34.18 52.674 -76.36 52.674 c -42.18 0 -76.36 -23.581 -76.36 -52.674 c 0 -29.08 34.18 -52.662 76.36 -52.662 c 42.18 0 76.36 23.581 76.36 52.662 Z" transform="matrix(.22631 0 0 .32815 -9.61218 -12.42358)" style="stroke-width:5.285"/>
  <path d="m 224.9 113.27 c 0 29.09 -34.19 52.671 -76.37 52.671 c -42.18 0 -76.37 -23.582 -76.37 -52.671 c 0 -29.09 34.19 -52.671 76.37 -52.671 c 42.18 0 76.37 23.582 76.37 52.671 Z" transform="matrix(.15559 0 0 .22561 .8916 -.80787)" style="stroke-width:7.687"/>
 </g>
 <use xlink:href="#surface17" style="mask:url(#mask0)"/>
 <use xlink:href="#surface26" style="mask:url(#mask1)"/>
 <use xlink:href="#surface35" style="mask:url(#mask2)"/>
 <use xlink:href="#surface44" style="mask:url(#mask3)"/>
 <use xlink:href="#surface53" style="mask:url(#mask4)"/>
 <g style="fill:#4a8c9d">
  <path d="m 14.418 21.434 c 0 0.992 -0.805 1.801 -1.801 1.801 c -0.992 0 -1.801 -0.809 -1.801 -1.801 c 0 -0.996 0.809 -1.801 1.801 -1.801 c 0.996 0 1.801 0.805 1.801 1.801 Z"/>
  <path d="m 35.941 19.06 c 0 0.992 -0.805 1.801 -1.801 1.801 c -0.992 0 -1.801 -0.809 -1.801 -1.801 c 0 -0.996 0.809 -1.801 1.801 -1.801 c 0.996 0 1.801 0.805 1.801 1.801 Z"/>
  <path d="m 26.27 7.684 c 0 0.996 -0.805 1.801 -1.801 1.801 c -0.992 0 -1.797 -0.805 -1.797 -1.801 c 0 -0.996 0.805 -1.801 1.797 -1.801 c 0.996 0 1.801 0.805 1.801 1.801 Z"/>
  <path d="m 15.559 38.688 c 0 0.996 -0.809 1.801 -1.801 1.801 c -0.996 0 -1.801 -0.805 -1.801 -1.801 c 0 -0.992 0.805 -1.801 1.801 -1.801 c 0.992 0 1.801 0.809 1.801 1.801 Z"/>
  <path d="m 35.09 39.445 c 0 0.996 -0.809 1.801 -1.801 1.801 c -0.996 0 -1.801 -0.805 -1.801 -1.801 c 0 -0.992 0.805 -1.797 1.801 -1.797 c 0.992 0 1.801 0.805 1.801 1.797 Z"/>
 </g>
</svg>
